X:1
T:Title
%%score ( 1 2 ) { 3 | 4 }
L:1/8
M:3/4
K:F
V:1 treble nm="Grand Piano, Unnamed-000"
V:2 treble 
V:3 bass nm="Choir Pad, Unnamed-001"
V:4 bass 
V:1
 C2 [FA]4 | .B2 c4 | .B2 z2 z2 | [CE]2 [CF]4 | z2 A2 z2 | z2 =B4 | [F=B]2 [Ec]4 | %7
w: By~Jessie~Seymour~Irvine~(1836\-1887) *|||||||
 [FA]2 [FA]2 [GB]2 | [FA]2 [EG]4 | [FA]2 [GB]2 [Ac]2 | [GB]2 [FA]4 | A2 G2 z2 | [Dd]2 [CF]4 | %13
w: ||||||
 [CE]2 [CF]4- | [CF]4 z2 |] %15
w: ||
V:2
 x6 | E-[EG] F2 E2 | D-[DA] [CF]4 | x6 | [FA]2 F2- [FG]2 | [FG]2 D2 G2 | x6 | x6 | x6 | x6 | x6 | %11
 FE D2- [DB]2 | x6 | x6 | x6 |] %15
V:3
 A,2 C4 | B,2 A,4 | F,G, A,4 | G,2 A,4 | C2 =B,4 | =B,2[K:treble] D4 | D2 C4 | C2 C4 | C2 C4 | %9
 C2 C4 | C2 C4 | C2[K:bass] B,4 | G,2 A,4 | G,2 A,4- | A,4 z2 |] %15
V:4
 F,2 F,4 | F,2 F,2 A,,2 | B,,2 C,4 | C,2 F,4 | F,E, D,4 | D,2 G,4 | G,,2 C,4 | F,2 F,2 E,2 | %8
 F,2 C,2 B,2 | A,2 G,2 C,2 | D,E, F,4 | A,,2 B,,4 | B,,2 C,4 | C,2 F,4- | F,4 z2 |] %15

